X:96
T: Gaoshan dingshang xiu tiao he
N: C0120
O: China, Hunan, Shaoshan
S: I, 506]
N: neues Volkslied. voellig neuer Text.
N: Verzierungen: vereinzelt Praller, ?) und Glissandi.
R: Wuge, Dengdiao, Cailianchuan. Xin minge]
M: 4/4
L: 1/16
K: C
d3ge2d2c4A2G2 | d3ge2d2c4A2G2
d6e2g2e2a2g2 | e3de2g2d4c4
d6e2g2e2a2g2 | e3de2g2d4c4
c4A2c2d6e2 | c4A2e2d2A2G4 | e3ge2A2c4c4
A3cA2G2E4G4 | e6A2e4d2A2 | c6d2A2G2E4 | G16

